actions/22x22-light/labplot-TeX-logo.svg

<svg xmlns="http://www.w3.org/2000/svg" viewBox="0 0 22 22">
 <defs id="defs3051">
   <style type="text/css" id="current-color-scheme">
     .ColorScheme-Text {
       color:#4d4d4d;
     }
     </style>
 </defs>
   <path
      style="fill:currentColor;fill-opacity:1;stroke:none"
      d="m3 6.5v1h2.5v6h1v-6h2.5v-1zm11.394531.1953125-.791015.609375 2.265625 2.9453125-2.265625 2.945312.791015.609376 2.105469-2.736329 2.103516 2.736329.791015-.609376-2.265625-2.945312 2.265625-2.9453125-.791015-.609375-2.103516 2.7363281zm-6.394531 1.8046875v1 1.5 1 2.5 1h5v-1h-4v-2h4v-1h-4v-2h4v-1z"
      class="ColorScheme-Text" />
</svg>

<svg xmlns="http://www.w3.org/2000/svg" viewBox="0 0 22 22">
  <defs id="defs3051">
    <style type="text/css" id="current-color-scheme">
      .ColorScheme-Text {
        color:#4d4d4d;
      }
      </style>
  </defs>
 <path 
     style="fill:currentColor;fill-opacity:1;stroke:none" 
     d="M 3 6.5 L 3 7.5 L 5.5 7.5 L 5.5 13.5 L 6.5 13.5 L 6.5 7.5 L 9 7.5 L 9 6.5 L 3 6.5 z M 14.394531 6.6953125 L 13.603516 7.3046875 L 15.869141 10.25 L 13.603516 13.195312 L 14.394531 13.804688 L 16.5 11.068359 L 18.603516 13.804688 L 19.394531 13.195312 L 17.128906 10.25 L 19.394531 7.3046875 L 18.603516 6.6953125 L 16.5 9.4316406 L 14.394531 6.6953125 z M 8 8.5 L 8 9.5 L 8 11 L 8 12 L 8 14.5 L 8 15.5 L 13 15.5 L 13 14.5 L 9 14.5 L 9 12.5 L 13 12.5 L 13 11.5 L 9 11.5 L 9 9.5 L 13 9.5 L 13 8.5 L 8 8.5 z "
     class="ColorScheme-Text"
     />
</svg>
